icons/junos.svg

<!--
  - The MIT License (MIT)
  -
  - Copyright (c) 2015-2024 Elior "Mallowigi" Boukhobza
  -
  - Permission is hereby granted, free of charge, to any person obtaining a copy
  - of this software and associated documentation files (the "Software"), to deal
  - in the Software without restriction, including without limitation the rights
  - to use, copy, modify, merge, publish, distribute, sublicense, and/or sell
  - copies of the Software, and to permit persons to whom the Software is
  - furnished to do so, subject to the following conditions:
  -
  - The above copyright notice and this permission notice shall be included in all
  - copies or substantial portions of the Software.
  -
  - THE SOFTWARE IS PROVIDED "AS IS", WITHOUT WARRANTY OF ANY KIND, EXPRESS OR
  - IMPLIED, INCLUDING BUT NOT LIMITED TO THE WARRANTIES OF MERCHANTABILITY,
  - FITNESS FOR A PARTICULAR PURPOSE AND NONINFRINGEMENT. IN NO EVENT SHALL THE
  - AUTHORS OR COPYRIGHT HOLDERS BE LIABLE FOR ANY CLAIM, DAMAGES OR OTHER
  - LIABILITY, WHETHER IN AN ACTION OF CONTRACT, TORT OR OTHERWISE, ARISING FROM,
  - OUT OF OR IN CONNECTION WITH THE SOFTWARE OR THE USE OR OTHER DEALINGS IN THE
  - SOFTWARE.
  -
  -->

<svg  version="1.1" xmlns="http://www.w3.org/2000/svg" viewBox="0 0 512 512" width="16px" height="16px">
  <path fill="#3a687a" data-iconColor="Junos"
        d="M432.349884,255.8014984c-20.9591675-15.2447662-52.3993835-21.77565-83.7147522-30.1626129l82.8085938-82.7627563l-113.0732117,30.3397064c8.5048218-30.3114319,18.5810852-63.5257492,15.7228699-87.5615005C439.4939575,43.6640091,523.5691528,181.036911,432.349884,255.8014984z M39.2754173,255.7967377c15.1161041-12.5343018,47.6253319-21.6933899,83.7099609-30.1586456l-82.8133469-82.7595825l113.0613632,30.3357239c-9.0012665-31.8615875-18.6988678-65.9501266-15.7110901-87.568573C32.6299477,45.1653519-52.1959457,178.534668,39.2754173,255.7967377z M334.0794067,85.6047287C316.3838196-26.6488991,157.9921112-30.4022579,137.5341034,85.5952606c20.0618134,7.994751,43.3418579,32.3031616,68.0123291,57.4217987l30.2464752-113.0756531l30.28125,113.0851135C289.1094055,118.7311707,313.9118652,94.1341629,334.0794067,85.6047287z M235.8043518,338.3986511l30.2698059,30.2550964l11.0523071-41.2789917l41.241394,11.0639648L307.31073,297.1092529l41.3342896-11.0854187L318.4295349,255.82547l30.2054443-30.1864929l-41.3217773-11.0847473l11.0569458-41.3382721l-41.2484741,11.0702972l-11.0475769-41.260025l-30.2606506,30.231369l-30.266983-30.2408752l-11.0501862,41.2693787l-41.2625732-11.0721741l11.0664825,41.3416138l-41.3146439,11.0825653l30.2100906,30.191864l-30.2083511,30.1915741l41.3129044,11.080658l-11.068985,41.3460693l41.2628632-11.0687561l11.0499878,41.274231L235.8043518,338.3986511z M205.5129547,308.1779175c-40.2164154-23.1851807-40.2164307-81.4629364-0.0000153-104.6481476s90.7598877,5.9536591,90.7598877,52.3240814S245.7293701,331.3631287,205.5129547,308.1779175z M153.2311859,338.447937L40.1769218,368.7868652l82.8109589-82.7658997c-31.3545227-8.3786621-63.2351456-15.0986023-83.7124023-30.1602783c-94.0570679,76.0612183-2.3083191,212.5166626,98.2437744,170.1455688C134.704895,403.1361084,143.1042938,374.8918457,153.2311859,338.447937z M334.074585,426.0559387c-17.1277771-6.9935608-36.7077942-24.8845825-68.0005493-57.4020081l-30.2788544,113.0898132l-30.2511902-113.0898132c-24.2458496,24.6166382-46.5419464,48.521698-68.0123291,57.4020081C158.1161194,543.8538818,318.2559509,537.3966675,334.074585,426.0559387z M432.349823,255.8654633c-19.9284973,14.7204132-53.3305054,21.9710846-83.7052612,30.1578217l82.8062439,82.7588806l-113.0827942-30.343689c9.1924744,34.0196838,18.8677979,65.7147217,15.7206116,87.5677795C439.7441711,468.2939148,523.819397,330.1703491,432.349823,255.8654633z"/>
</svg>

<svg xmlns="http://www.w3.org/2000/svg" viewBox="0 0 512 512"><path fill="#3a687a" d="M432.35 255.801c-20.96-15.244-52.4-21.775-83.715-30.162l82.809-82.763-113.073 30.34c8.504-30.312 18.58-63.526 15.722-87.562 105.401-41.99 189.476 95.383 98.257 170.147m-393.075-.004c15.117-12.535 47.626-21.694 83.71-30.159l-82.813-82.76 113.061 30.336c-9-31.861-18.698-65.95-15.71-87.568-104.893-40.48-189.719 92.889-98.248 170.15M334.08 85.605c-17.695-112.254-176.087-116.007-196.545-.01 20.062 7.995 43.342 32.303 68.012 57.422l30.247-113.076 30.281 113.086c23.035-24.296 47.838-48.893 68.005-57.422m-98.275 252.794 30.27 30.255 11.052-41.28 41.242 11.065-11.057-41.33 41.334-11.085-30.215-30.199 30.205-30.186-41.322-11.085 11.057-41.338-41.248 11.07-11.048-41.26-30.26 30.232-30.268-30.241-11.05 41.27-41.262-11.073 11.066 41.342-41.314 11.082 30.21 30.192-30.209 30.192 41.313 11.08-11.069 41.346 41.263-11.068 11.05 41.274zm-30.291-30.221c-40.216-23.185-40.216-81.463 0-104.648s90.76 5.953 90.76 52.324-50.544 75.51-90.76 52.324m-52.282 30.27L40.177 368.787l82.81-82.766c-31.354-8.379-63.234-15.099-83.712-30.16-94.057 76.06-2.308 212.516 98.244 170.145-2.814-22.87 5.585-51.114 15.712-87.558m180.844 87.608c-17.128-6.994-36.708-24.885-68.001-57.402l-30.279 113.09-30.251-113.09c-24.246 24.617-46.542 48.522-68.012 57.402 20.584 117.798 180.724 111.34 196.543 0m98.275-170.19c-19.929 14.72-53.33 21.97-83.705 30.157l82.806 82.76-113.083-30.345c9.192 34.02 18.868 65.715 15.72 87.568 105.656 42.288 189.731-95.836 98.262-170.14" data-iconColor="Junos"/></svg>
